app/dist/common/images/maris-tech-ltd.svg

<svg height="18" viewBox="0 0 18 18" width="18" xmlns="http://www.w3.org/2000/svg"><path d="m0 0h18v18h-18z" fill="#0158a9"/><g fill="#f0f3fa"><path d="m4.58 13v-1h1.42v1zm0-2v-1h1.42v1zm0-2v-1h1.42v1zm0-1c0-1.9.9-3 2.65-3 1.32 0 2.1.87 2.1.87s.57-.87 2.1-.87 2.57 1.26 2.57 2.86v1.14h-1.42v-1.14s-.11-1.15-1.16-1.15-1.42 1.15-1.42 1.15v1.14h-1.49v-1.15c0-.56-.65-1.14-1.28-1.14-.82 0-1.23.72-1.23 1.29zm9.42 2v1h-1.42v-1zm0 2v1h-1.42v-1zm-4-2v1h-1.49v-1zm0 2v1h-1.49v-1z"/><path d="m3.42 7h1.38v1h-1.38c-.22 0-.42-.14-.42-.5 0-.3.2-.5.42-.5zm-1.1 2h2.26v1h-2.26c-.19 0-.32-.21-.32-.52.02-.24.13-.48.32-.48zm1.03 2h1.23v1h-1.23c-.19 0-.35-.15-.35-.52.02-.34.16-.48.35-.48z"/></g></svg>

<!-- by TradingView --><svg width="18" height="18" viewBox="0 0 18 18" xmlns="http://www.w3.org/2000/svg"><path fill="#0158A9" d="M0 0h18v18H0z"/><path d="M4.58 13v-1H6v1H4.58Zm0-2v-1H6v1H4.58Zm0-2V8H6v1H4.58Zm0-1c0-1.9.9-3 2.65-3 1.32 0 2.1.87 2.1.87S9.9 5 11.43 5 14 6.26 14 7.86V9h-1.42V7.86s-.11-1.15-1.16-1.15C10.37 6.71 10 7.86 10 7.86V9H8.51V7.85c0-.56-.65-1.14-1.28-1.14C6.41 6.71 6 7.43 6 8H4.58ZM14 10v1h-1.42v-1H14Zm0 2v1h-1.42v-1H14Zm-4-2v1H8.51v-1H10Zm0 2v1H8.51v-1H10Z" fill="#F0F3FA"/><path d="M3.42 7H4.8v1H3.42C3.2 8 3 7.86 3 7.5c0-.3.2-.5.42-.5ZM2.32 9h2.26v1H2.32C2.13 10 2 9.79 2 9.48c.02-.24.13-.48.32-.48ZM3.35 11h1.23v1H3.35c-.19 0-.35-.15-.35-.52.02-.34.16-.48.35-.48Z" fill="#F0F3FA"/></svg>
